; generated by Slic3r 1.1.7 on 2016-02-12 at 16:28:51

; perimeters extrusion width = 0.10mm
; infill extrusion width = 0.11mm
; solid infill extrusion width = 0.11mm
; top infill extrusion width = 0.11mm

G21 ; set units to millimeters
G28 ; home all axes
G90 ; use absolute coordinates
G92 E0
M82 ; use absolute distances for extrusion
G1 F240.000 E-1.00000
T1
G92 E0
G1 Z0.100 F480.000
G1 X-9.112 Y-0.006 F480.000
G1 E1.00000 F240.000
M106
G1 X-9.059 Y-0.979 E1.00246 F60.000
G1 X-8.906 Y-1.926 E1.00488
G1 X-8.650 Y-2.862 E1.00733
G1 X-8.297 Y-3.765 E1.00978
G1 X-7.849 Y-4.625 E1.01223
G1 X-7.313 Y-5.433 E1.01468
G1 X-6.609 Y-6.269 E1.01744
G1 X-5.902 Y-6.939 E1.01990
G1 X-5.236 Y-7.454 E1.02203
G1 X-4.414 Y-7.968 E1.02448
G1 X-3.542 Y-8.392 E1.02693
G1 X-2.629 Y-8.720 E1.02938
G1 X-1.688 Y-8.950 E1.03183
G1 X-0.727 Y-9.079 E1.03427
G1 X0.242 Y-9.104 E1.03672
G1 X1.209 Y-9.027 E1.03917
G1 X2.161 Y-8.847 E1.04162
G1 X3.089 Y-8.567 E1.04407
G1 X3.982 Y-8.190 E1.04652
G1 X4.830 Y-7.720 E1.04897
G1 X5.623 Y-7.163 E1.05141
G1 X6.353 Y-6.524 E1.05386
G1 X6.607 Y-6.267 E1.05478
G1 X7.243 Y-5.520 E1.05725
G1 X7.588 Y-5.034 E1.05876
G1 X7.806 Y-4.690 E1.05979
G1 X8.080 Y-4.199 E1.06121
G1 X8.267 Y-3.818 E1.06228
G1 X8.481 Y-3.316 E1.06366
G1 X8.631 Y-2.902 E1.06477
G1 X8.785 Y-2.396 E1.06611
G1 X8.894 Y-1.952 E1.06726
G1 X8.990 Y-1.448 E1.06856
G1 X9.052 Y-0.990 E1.06972
G1 X9.112 Y-0.000 E1.07223
G1 X9.052 Y0.990 E1.07474
G1 X8.990 Y1.448 E1.07590
G1 X8.894 Y1.952 E1.07720
G1 X8.785 Y2.396 E1.07835
G1 X8.631 Y2.902 E1.07969
G1 X8.481 Y3.316 E1.08080
G1 X8.267 Y3.818 E1.08218
G1 X8.080 Y4.199 E1.08325
G1 X7.806 Y4.690 E1.08467
G1 X7.588 Y5.034 E1.08570
G1 X7.010 Y5.812 E1.08815
G1 X6.607 Y6.267 E1.08968
G1 X6.353 Y6.524 E1.09060
G1 X5.623 Y7.163 E1.09304
G1 X4.830 Y7.720 E1.09549
G1 X3.982 Y8.190 E1.09794
G1 X3.089 Y8.567 E1.10039
G1 X2.161 Y8.847 E1.10284
G1 X1.209 Y9.027 E1.10529
G1 X0.242 Y9.104 E1.10774
G1 X-0.727 Y9.079 E1.11018
G1 X-1.688 Y8.950 E1.11263
G1 X-2.629 Y8.720 E1.11508
G1 X-3.542 Y8.392 E1.11753
G1 X-4.414 Y7.968 E1.11998
G1 X-5.236 Y7.454 E1.12243
G1 X-5.902 Y6.939 E1.12456
G1 X-6.609 Y6.269 E1.12702
G1 X-7.313 Y5.433 E1.12978
G1 X-7.849 Y4.625 E1.13223
G1 X-8.297 Y3.765 E1.13467
G1 X-8.650 Y2.862 E1.13712
G1 X-8.906 Y1.926 E1.13957
G1 X-9.060 Y0.969 E1.14202
G1 X-9.112 Y-0.006 E1.14449
M107
M126
M127
G1 F240.000 E0.14449
G92 E0
G1 Z0.200 F480.000
G1 X-9.050 Y-0.003 F480.000
G1 E1.00000 F240.000
M106
G1 X-8.997 Y-0.978 E1.00138 F60.000
G1 X-8.838 Y-1.946 E1.00277
G1 X-8.576 Y-2.890 E1.00416
G1 X-8.214 Y-3.800 E1.00554
G1 X-7.755 Y-4.666 E1.00693
G1 X-7.205 Y-5.477 E1.00831
G1 X-6.570 Y-6.224 E1.00970
G1 X-5.859 Y-6.898 E1.01109
G1 X-5.079 Y-7.491 E1.01247
G1 X-4.239 Y-7.996 E1.01386
G1 X-3.350 Y-8.407 E1.01525
G1 X-2.421 Y-8.720 E1.01663
G1 X-1.464 Y-8.931 E1.01802
G1 X-0.490 Y-9.037 E1.01940
G1 X0.522 Y-9.033 E1.02084
G1 X1.464 Y-8.931 E1.02218 F60.000
G1 X2.421 Y-8.720 E1.02356
G1 X3.350 Y-8.407 E1.02495
G1 X4.267 Y-7.979 E1.02638
G1 X5.079 Y-7.491 E1.02772
G1 X5.859 Y-6.898 E1.02911
G1 X6.570 Y-6.224 E1.03049
G1 X7.205 Y-5.477 E1.03188
G1 X7.755 Y-4.666 E1.03327
G1 X8.214 Y-3.800 E1.03465
G1 X8.576 Y-2.890 E1.03604
G1 X8.838 Y-1.946 E1.03743
G1 X8.997 Y-0.978 E1.03881
G1 X9.050 Y-0.000 E1.04020
G1 X8.997 Y0.978 E1.04158
G1 X8.838 Y1.945 E1.04297
G1 X8.576 Y2.890 E1.04436
G1 X8.214 Y3.800 E1.04574
G1 X7.737 Y4.692 E1.04718
G1 X7.205 Y5.477 E1.04852
G1 X6.570 Y6.224 E1.04990
G1 X5.859 Y6.898 E1.05129
G1 X5.079 Y7.491 E1.05268
G1 X4.239 Y7.996 E1.05406
G1 X3.350 Y8.407 E1.05545
G1 X2.421 Y8.720 E1.05683
G1 X1.464 Y8.931 E1.05822
G1 X0.490 Y9.037 E1.05961
G1 X-0.490 Y9.037 E1.06099
G1 X-1.464 Y8.931 E1.06238
G1 X-2.421 Y8.720 E1.06377
G1 X-3.350 Y8.407 E1.06515
G1 X-4.239 Y7.996 E1.06654
G1 X-5.079 Y7.491 E1.06792
G1 X-5.859 Y6.898 E1.06931
G1 X-6.570 Y6.224 E1.07070
G1 X-7.205 Y5.477 E1.07208
G1 X-7.741 Y4.691 E1.07343
G1 X-8.214 Y3.800 E1.07486
G1 X-8.576 Y2.890 E1.07624
G1 X-8.838 Y1.945 E1.07763
G1 X-8.997 Y0.978 E1.07902
G1 X-9.049 Y0.012 E1.08038
G1 X-9.174 Y-0.009 F480.000
G1 X-9.123 Y-0.975 E1.08175 F60.000
G1 X-8.968 Y-1.939 E1.08313
G1 X-8.711 Y-2.882 E1.08452
G1 X-8.355 Y-3.791 E1.08590
G1 X-7.905 Y-4.658 E1.08728
G1 X-7.365 Y-5.472 E1.08866
G1 X-6.742 Y-6.223 E1.09004
G1 X-6.042 Y-6.905 E1.09142
G1 X-5.274 Y-7.508 E1.09281
G1 X-4.446 Y-8.026 E1.09419
G1 X-3.567 Y-8.453 E1.09557
G1 X-2.649 Y-8.784 E1.09695
G1 X-1.700 Y-9.016 E1.09833
G1 X-0.732 Y-9.146 E1.09971
G1 X0.244 Y-9.172 E1.10110
G1 X1.191 Y-9.096 E1.10244
G1 X2.177 Y-8.913 E1.10386 F60.000
G1 X3.112 Y-8.631 E1.10524
G1 X4.012 Y-8.251 E1.10662
G1 X4.843 Y-7.791 E1.10797
G1 X5.666 Y-7.217 E1.10938
G1 X6.401 Y-6.573 E1.11077
G1 X7.063 Y-5.856 E1.11215
G1 X7.630 Y-5.093 E1.11349
G1 X8.141 Y-4.230 E1.11491
G1 X8.545 Y-3.341 E1.11629
G1 X8.852 Y-2.414 E1.11767
G1 X9.058 Y-1.459 E1.11906
G1 X9.162 Y-0.488 E1.12044
G1 X9.175 Y-0.000 E1.12113
G1 X9.162 Y0.488 E1.12182
G1 X9.061 Y1.433 E1.12316
G1 X8.852 Y2.414 E1.12458
G1 X8.545 Y3.341 E1.12596
G1 X8.141 Y4.230 E1.12735
G1 X7.659 Y5.049 E1.12869
G1 X7.063 Y5.856 E1.13011
G1 X6.401 Y6.573 E1.13149
G1 X5.666 Y7.217 E1.13287
G1 X4.888 Y7.763 E1.13422
G1 X4.012 Y8.251 E1.13564
G1 X3.112 Y8.631 E1.13702
G1 X2.177 Y8.913 E1.13840
G1 X1.244 Y9.089 E1.13974
G1 X0.244 Y9.172 E1.14116
G1 X-0.732 Y9.146 E1.14254
G1 X-1.700 Y9.016 E1.14392
G1 X-2.649 Y8.784 E1.14531
G1 X-3.567 Y8.453 E1.14669
G1 X-4.446 Y8.026 E1.14807
G1 X-5.274 Y7.508 E1.14945
G1 X-6.042 Y6.905 E1.15083
G1 X-6.742 Y6.223 E1.15221
G1 X-7.365 Y5.472 E1.15360
G1 X-7.905 Y4.658 E1.15498
G1 X-8.343 Y3.815 E1.15632
G1 X-8.711 Y2.882 E1.15774
G1 X-8.968 Y1.939 E1.15912
G1 X-9.123 Y0.975 E1.16050
G1 X-9.175 Y0.006 E1.16188
M107
M126
M127
G1 F240.000 E0.16188
G92 E0
G1 Z0.300 F480.000
G1 X-9.050 Y-0.003 F480.000
G1 E1.00000 F240.000
M106
G1 X-8.997 Y-0.978 E1.00138 F60.000
G1 X-8.838 Y-1.946 E1.00277
G1 X-8.576 Y-2.890 E1.00416
G1 X-8.214 Y-3.800 E1.00554
G1 X-7.755 Y-4.666 E1.00693
G1 X-7.205 Y-5.477 E1.00831
G1 X-6.570 Y-6.224 E1.00970
G1 X-5.859 Y-6.898 E1.01109
G1 X-5.079 Y-7.491 E1.01247
G1 X-4.239 Y-7.996 E1.01386
G1 X-3.350 Y-8.407 E1.01525
G1 X-2.421 Y-8.720 E1.01663
G1 X-1.464 Y-8.931 E1.01802
G1 X-0.490 Y-9.037 E1.01940
G1 X0.430 Y-9.043 E1.02071
G1 X1.464 Y-8.931 E1.02218
G1 X2.421 Y-8.720 E1.02356 F60.000
G1 X3.350 Y-8.407 E1.02495
G1 X4.239 Y-7.996 E1.02634
G1 X5.079 Y-7.491 E1.02772
G1 X5.859 Y-6.898 E1.02911
G1 X6.604 Y-6.185 E1.03057
G1 X7.205 Y-5.477 E1.03188
G1 X7.755 Y-4.666 E1.03327
G1 X8.214 Y-3.800 E1.03465
G1 X8.590 Y-2.840 E1.03611
G1 X8.838 Y-1.946 E1.03743
G1 X8.995 Y-1.022 E1.03875
G1 X9.050 Y-0.000 E1.04020
G1 X8.989 Y1.029 E1.04166
G1 X8.838 Y1.945 E1.04297
G1 X8.576 Y2.890 E1.04436
G1 X8.214 Y3.800 E1.04574
G1 X7.726 Y4.708 E1.04720
G1 X7.205 Y5.477 E1.04852
G1 X6.570 Y6.224 E1.04990
G1 X5.859 Y6.898 E1.05129
G1 X5.079 Y7.491 E1.05268
G1 X4.239 Y7.996 E1.05406
G1 X3.350 Y8.407 E1.05545
G1 X2.421 Y8.720 E1.05683
G1 X1.464 Y8.931 E1.05822
G1 X0.490 Y9.037 E1.05961
G1 X-0.490 Y9.037 E1.06099
G1 X-1.464 Y8.931 E1.06238
G1 X-2.421 Y8.720 E1.06377
G1 X-3.350 Y8.407 E1.06515
G1 X-4.239 Y7.996 E1.06654
G1 X-5.079 Y7.491 E1.06792
G1 X-5.859 Y6.898 E1.06931
G1 X-6.570 Y6.224 E1.07070
G1 X-7.205 Y5.477 E1.07208
G1 X-7.755 Y4.666 E1.07347
G1 X-8.214 Y3.800 E1.07486
G1 X-8.576 Y2.890 E1.07624
G1 X-8.838 Y1.945 E1.07763
G1 X-8.997 Y0.978 E1.07902
G1 X-9.049 Y0.012 E1.08038
G1 X-9.174 Y-0.009 F480.000
G1 X-9.123 Y-0.975 E1.08175 F60.000
G1 X-8.968 Y-1.939 E1.08313
G1 X-8.711 Y-2.882 E1.08452
G1 X-8.355 Y-3.791 E1.08590
G1 X-7.905 Y-4.658 E1.08728
G1 X-7.365 Y-5.472 E1.08866
G1 X-6.742 Y-6.223 E1.09004
G1 X-6.042 Y-6.905 E1.09142
G1 X-5.274 Y-7.508 E1.09281
G1 X-4.446 Y-8.026 E1.09419
G1 X-3.567 Y-8.453 E1.09557
G1 X-2.649 Y-8.784 E1.09695
G1 X-1.700 Y-9.016 E1.09833
G1 X-0.732 Y-9.146 E1.09971
G1 X0.244 Y-9.172 E1.10110
G1 X1.171 Y-9.097 E1.10241
G1 X2.177 Y-8.913 E1.10386 F60.000
G1 X3.112 Y-8.631 E1.10524
G1 X4.012 Y-8.251 E1.10662
G1 X4.867 Y-7.778 E1.10800
G1 X5.666 Y-7.217 E1.10938
G1 X6.401 Y-6.573 E1.11077
G1 X7.032 Y-5.890 E1.11208
G1 X7.646 Y-5.072 E1.11353
G1 X8.141 Y-4.230 E1.11491
G1 X8.545 Y-3.341 E1.11629
G1 X8.852 Y-2.414 E1.11767
G1 X9.058 Y-1.459 E1.11906
G1 X9.157 Y-0.534 E1.12037
G1 X9.175 Y-0.000 E1.12113
G1 X9.162 Y0.488 E1.12182
G1 X9.058 Y1.459 E1.12320
G1 X8.852 Y2.414 E1.12458
G1 X8.545 Y3.341 E1.12596
G1 X8.141 Y4.230 E1.12735
G1 X7.646 Y5.072 E1.12873
G1 X7.063 Y5.856 E1.13011
G1 X6.401 Y6.573 E1.13149
G1 X5.666 Y7.217 E1.13287
G1 X4.905 Y7.751 E1.13419
G1 X4.012 Y8.251 E1.13564
G1 X3.112 Y8.631 E1.13702
G1 X2.177 Y8.913 E1.13840
G1 X1.218 Y9.094 E1.13978
G1 X0.244 Y9.172 E1.14116
G1 X-0.732 Y9.146 E1.14254
G1 X-1.700 Y9.016 E1.14393
G1 X-2.649 Y8.784 E1.14531
G1 X-3.567 Y8.453 E1.14669
G1 X-4.446 Y8.026 E1.14807
G1 X-5.274 Y7.508 E1.14945
G1 X-6.042 Y6.905 E1.15083
G1 X-6.708 Y6.256 E1.15215
G1 X-7.365 Y5.472 E1.15360
G1 X-7.905 Y4.658 E1.15498
G1 X-8.334 Y3.832 E1.15629
G1 X-8.711 Y2.882 E1.15774
G1 X-8.968 Y1.939 E1.15912
G1 X-9.123 Y0.975 E1.16050
G1 X-9.175 Y0.006 E1.16188
M107
M126
M127
G1 F240.000 E0.16188
G92 E0
G1 Z0.400 F480.000
G1 X-9.050 Y-0.002 F480.000
G1 E1.00000 F240.000
M106
G1 X-8.997 Y-0.978 E1.00138 F60.000
G1 X-8.838 Y-1.946 E1.00277
G1 X-8.576 Y-2.890 E1.00416
G1 X-8.214 Y-3.800 E1.00554
G1 X-7.755 Y-4.666 E1.00693
G1 X-7.205 Y-5.477 E1.00831
G1 X-6.570 Y-6.224 E1.00970
G1 X-5.859 Y-6.898 E1.01109
G1 X-5.079 Y-7.491 E1.01247
G1 X-4.239 Y-7.996 E1.01386
G1 X-3.350 Y-8.407 E1.01525
G1 X-2.421 Y-8.720 E1.01663
G1 X-1.464 Y-8.931 E1.01802
G1 X-0.490 Y-9.037 E1.01940
G1 X0.490 Y-9.037 E1.02079
G1 X0.650 Y-9.019 E1.02102
G1 X1.464 Y-8.931 E1.02218 F60.000
G1 X2.421 Y-8.720 E1.02356
G1 X3.350 Y-8.407 E1.02495
G1 X4.300 Y-7.959 E1.02644
G1 X5.079 Y-7.491 E1.02772
G1 X5.859 Y-6.898 E1.02911
G1 X6.570 Y-6.224 E1.03049
G1 X7.205 Y-5.477 E1.03188
G1 X7.755 Y-4.666 E1.03327
G1 X8.214 Y-3.800 E1.03465
G1 X8.576 Y-2.890 E1.03604
G1 X8.838 Y-1.945 E1.03743
G1 X8.997 Y-0.978 E1.03881
G1 X9.050 Y-0.000 E1.04020
G1 X8.986 Y1.048 E1.04168
G1 X8.838 Y1.945 E1.04297
G1 X8.576 Y2.890 E1.04436
G1 X8.214 Y3.800 E1.04574
G1 X7.755 Y4.666 E1.04713
G1 X7.205 Y5.477 E1.04852
G1 X6.570 Y6.224 E1.04990
G1 X5.859 Y6.898 E1.05129
G1 X5.079 Y7.491 E1.05268
G1 X4.867 Y7.618 E1.05303
G1 X4.239 Y7.996 E1.05406
G1 X3.350 Y8.407 E1.05545
G1 X2.421 Y8.720 E1.05683
G1 X1.464 Y8.931 E1.05822
G1 X0.490 Y9.037 E1.05961
G1 X-0.490 Y9.037 E1.06099
G1 X-1.412 Y8.942 E1.06230
G1 X-2.421 Y8.720 E1.06377
G1 X-3.350 Y8.407 E1.06515
G1 X-4.300 Y7.959 E1.06664
G1 X-5.079 Y7.491 E1.06792
G1 X-5.859 Y6.898 E1.06931
G1 X-6.570 Y6.224 E1.07070
G1 X-7.205 Y5.477 E1.07208
G1 X-7.755 Y4.666 E1.07347
G1 X-8.214 Y3.800 E1.07486
G1 X-8.576 Y2.890 E1.07624
G1 X-8.838 Y1.945 E1.07763
G1 X-8.997 Y0.978 E1.07901
G1 X-9.049 Y0.013 E1.08038
G1 X-9.174 Y-0.009 F480.000
G1 X-9.123 Y-0.975 E1.08175 F60.000
G1 X-8.968 Y-1.939 E1.08313
G1 X-8.711 Y-2.882 E1.08452
G1 X-8.355 Y-3.791 E1.08590
G1 X-7.905 Y-4.658 E1.08728
G1 X-7.365 Y-5.472 E1.08866
G1 X-6.742 Y-6.223 E1.09004
G1 X-6.042 Y-6.905 E1.09142
G1 X-5.274 Y-7.508 E1.09281
G1 X-4.446 Y-8.026 E1.09419
G1 X-3.567 Y-8.453 E1.09557
G1 X-2.649 Y-8.784 E1.09695
G1 X-1.700 Y-9.016 E1.09833
G1 X-0.732 Y-9.146 E1.09971
G1 X0.244 Y-9.172 E1.10109
G1 X1.106 Y-9.103 E1.10232
G1 X2.177 Y-8.913 E1.10386 F60.000
G1 X3.112 Y-8.631 E1.10524
G1 X4.012 Y-8.251 E1.10662
G1 X4.867 Y-7.778 E1.10800
G1 X5.666 Y-7.217 E1.10938
G1 X6.401 Y-6.573 E1.11077
G1 X7.018 Y-5.904 E1.11205
G1 X7.646 Y-5.072 E1.11353
G1 X8.141 Y-4.230 E1.11491
G1 X8.545 Y-3.341 E1.11629
G1 X8.852 Y-2.414 E1.11767
G1 X9.058 Y-1.459 E1.11905
G1 X9.162 Y-0.488 E1.12044
G1 X9.175 Y-0.000 E1.12113
G1 X9.162 Y0.488 E1.12182
G1 X9.058 Y1.459 E1.12320
G1 X8.866 Y2.349 E1.12449
G1 X8.545 Y3.341 E1.12596
G1 X8.141 Y4.230 E1.12734
G1 X7.646 Y5.072 E1.12873
G1 X7.063 Y5.856 E1.13011
G1 X6.401 Y6.573 E1.13149
G1 X5.666 Y7.217 E1.13287
G1 X4.921 Y7.740 E1.13416
G1 X4.012 Y8.251 E1.13563
G1 X3.112 Y8.631 E1.13702
G1 X2.177 Y8.913 E1.13840
G1 X1.218 Y9.094 E1.13978
G1 X0.244 Y9.172 E1.14116
G1 X-0.732 Y9.146 E1.14254
G1 X-1.700 Y9.016 E1.14392
G1 X-2.649 Y8.784 E1.14531
G1 X-3.567 Y8.453 E1.14669
G1 X-4.446 Y8.026 E1.14807
G1 X-5.274 Y7.508 E1.14945
G1 X-6.042 Y6.905 E1.15083
G1 X-6.742 Y6.223 E1.15221
G1 X-7.365 Y5.472 E1.15360
G1 X-7.905 Y4.658 E1.15498
G1 X-8.313 Y3.871 E1.15623
G1 X-8.711 Y2.882 E1.15774
G1 X-8.968 Y1.939 E1.15912
G1 X-9.123 Y0.975 E1.16050
G1 X-9.175 Y0.006 E1.16188
M107
M126
M127
G1 F240.000 E0.16188
G92 E0
G1 Z0.500 F480.000
G1 X-9.050 Y-0.002 F480.000
G1 E1.00000 F240.000
M106
G1 X-8.997 Y-0.978 E1.00138 F60.000
G1 X-8.838 Y-1.945 E1.00277
G1 X-8.576 Y-2.890 E1.00416
G1 X-8.214 Y-3.800 E1.00554
G1 X-7.755 Y-4.666 E1.00693
G1 X-7.205 Y-5.477 E1.00831
G1 X-6.570 Y-6.224 E1.00970
G1 X-5.859 Y-6.898 E1.01109
G1 X-5.079 Y-7.491 E1.01247
G1 X-4.239 Y-7.996 E1.01386
G1 X-3.350 Y-8.407 E1.01525
G1 X-2.421 Y-8.720 E1.01663
G1 X-1.464 Y-8.931 E1.01802
G1 X-0.490 Y-9.037 E1.01940
G1 X0.525 Y-9.033 E1.02084
G1 X1.464 Y-8.931 E1.02218 F60.000
G1 X2.421 Y-8.720 E1.02356
G1 X3.350 Y-8.407 E1.02495
G1 X4.317 Y-7.949 E1.02646
G1 X5.079 Y-7.491 E1.02772
G1 X5.859 Y-6.898 E1.02911
G1 X6.629 Y-6.155 E1.03062
G1 X7.205 Y-5.477 E1.03188
G1 X7.755 Y-4.666 E1.03327
G1 X8.214 Y-3.800 E1.03465
G1 X8.576 Y-2.890 E1.03604
G1 X8.838 Y-1.946 E1.03743
G1 X8.997 Y-0.978 E1.03881
G1 X9.050 Y-0.000 E1.04020
G1 X8.997 Y0.978 E1.04158
G1 X8.838 Y1.945 E1.04297
G1 X8.576 Y2.890 E1.04436
G1 X8.214 Y3.800 E1.04574
G1 X7.755 Y4.666 E1.04713
G1 X7.205 Y5.477 E1.04852
G1 X6.570 Y6.224 E1.04990
G1 X5.859 Y6.898 E1.05129
G1 X5.079 Y7.491 E1.05267
G1 X4.239 Y7.996 E1.05406
G1 X3.350 Y8.407 E1.05545
G1 X2.421 Y8.720 E1.05683
G1 X1.464 Y8.931 E1.05822
G1 X0.490 Y9.037 E1.05961
G1 X-0.490 Y9.037 E1.06099
G1 X-1.464 Y8.931 E1.06238
G1 X-2.421 Y8.720 E1.06377
G1 X-3.350 Y8.407 E1.06515
G1 X-4.317 Y7.949 E1.06666
G1 X-5.079 Y7.491 E1.06792
G1 X-5.859 Y6.898 E1.06931
G1 X-6.570 Y6.224 E1.07070
G1 X-7.205 Y5.477 E1.07208
G1 X-7.755 Y4.666 E1.07347
G1 X-8.214 Y3.800 E1.07485
G1 X-8.576 Y2.890 E1.07624
G1 X-8.838 Y1.945 E1.07763
G1 X-8.997 Y0.978 E1.07901
G1 X-9.049 Y0.013 E1.08038
G1 X-9.174 Y-0.009 F480.000
G1 X-9.123 Y-0.975 E1.08175 F60.000
G1 X-8.968 Y-1.939 E1.08313
G1 X-8.711 Y-2.882 E1.08451
G1 X-8.355 Y-3.791 E1.08590
G1 X-7.905 Y-4.658 E1.08728
G1 X-7.365 Y-5.472 E1.08866
G1 X-6.742 Y-6.223 E1.09004
G1 X-6.042 Y-6.905 E1.09142
G1 X-5.274 Y-7.508 E1.09280
G1 X-4.446 Y-8.026 E1.09419
G1 X-3.567 Y-8.453 E1.09557
G1 X-2.649 Y-8.784 E1.09695
G1 X-1.700 Y-9.016 E1.09833
G1 X-0.732 Y-9.146 E1.09971
G1 X0.244 Y-9.172 E1.10109
G1 X1.186 Y-9.096 E1.10243
G1 X2.177 Y-8.913 E1.10386 F60.000
G1 X3.112 Y-8.631 E1.10524
G1 X4.012 Y-8.251 E1.10662
G1 X4.792 Y-7.819 E1.10788
G1 X5.666 Y-7.217 E1.10938
G1 X6.401 Y-6.573 E1.11076
G1 X7.005 Y-5.919 E1.11202
G1 X7.646 Y-5.072 E1.11353
G1 X8.141 Y-4.230 E1.11491
G1 X8.545 Y-3.341 E1.11629
G1 X8.852 Y-2.414 E1.11767
G1 X9.058 Y-1.459 E1.11905
G1 X9.162 Y-0.488 E1.12044
G1 X9.175 Y-0.000 E1.12113
G1 X9.162 Y0.488 E1.12182
G1 X9.058 Y1.459 E1.12320
G1 X8.852 Y2.414 E1.12458
G1 X8.545 Y3.341 E1.12596
G1 X8.141 Y4.230 E1.12734
G1 X7.689 Y4.998 E1.12860
G1 X7.063 Y5.856 E1.13011
G1 X6.401 Y6.573 E1.13149
G1 X5.666 Y7.217 E1.13287
G1 X4.867 Y7.778 E1.13425
G1 X4.012 Y8.251 E1.13563
G1 X3.112 Y8.631 E1.13701
G1 X2.177 Y8.913 E1.13840
G1 X1.218 Y9.094 E1.13978
G1 X0.244 Y9.172 E1.14116
G1 X-0.732 Y9.146 E1.14254
G1 X-1.700 Y9.016 E1.14392
G1 X-2.649 Y8.784 E1.14530
G1 X-3.567 Y8.453 E1.14669
G1 X-4.446 Y8.026 E1.14807
G1 X-5.274 Y7.508 E1.14945
G1 X-6.042 Y6.905 E1.15083
G1 X-6.742 Y6.223 E1.15221
G1 X-7.365 Y5.472 E1.15359
G1 X-7.905 Y4.658 E1.15498
G1 X-8.315 Y3.867 E1.15624
G1 X-8.711 Y2.882 E1.15774
G1 X-8.968 Y1.939 E1.15912
G1 X-9.123 Y0.975 E1.16050
G1 X-9.175 Y0.006 E1.16188
M107
M126
M127
G1 F240.000 E0.16188
G92 E0
G1 Z0.600 F480.000
G1 X-9.050 Y-0.002 F480.000
G1 E1.00000 F240.000
M106
G1 X-8.997 Y-0.978 E1.00138 F60.000
